X: 1
T: Curdle Water
C: Barbara McOwen (Oct 1990)
R: jig
Z: 2006 John Chambers <jc:trillian.mit.edu>
S: handwritten MS by B.McOwen dates Jan 1991
M: 6/8
L: 1/8
K: D
|: "D"AddA "A"c2cd | "Em"efge "A"aAA2 | "D"AddA "A"c2cd | "A7"efge   "D"d2dz :|
[| "Em"e2ef   gfe2 | "Em"Beed "A"cAA2 | "Em"e2ef   gfe2 | "A"aAAA       gAfA ||
|| "Em"e2ef   gfe2 | "Em"Beed "A"cAA2 | "G"BGGB "A"cAeA | "D"fd"A"ec "D"d2dz |]
